dist/svg/broom-line.svg

<svg xmlns="http://www.w3.org/2000/svg" viewBox="0 0 24 24"><path d="M19.34 4.277a1 1 0 0 0-.22.081c-.055.028-1.886 1.834-4.068 4.014l-3.969 3.964-.772-.761c-.629-.62-.82-.784-1.032-.888-.46-.227-1.079-.233-1.514-.016-.34.17-3.676 2.566-3.879 2.787-.227.246-.357.539-.414.931-.04.273-.037.358.021.592.037.15.117.36.177.467.073.128.976 1.06 2.65 2.735 2.391 2.392 2.557 2.55 2.834 2.687.254.126.34.148.644.162.565.027.964-.123 1.326-.5.27-.281 2.588-3.548 2.726-3.842.219-.467.187-1.104-.078-1.563-.06-.103-.446-.53-.859-.949l-.75-.761 3.919-3.919c2.156-2.155 3.966-3.984 4.022-4.065.191-.274.178-.657-.032-.896-.198-.225-.471-.322-.732-.26m-8.848 9.593c1.03 1.028 1.911 1.921 1.956 1.983.068.094.074.13.037.213-.083.181-2.414 3.416-2.492 3.458a.22.22 0 0 1-.145.019c-.038-.012-.248-.202-.467-.422l-.398-.4.467-.472c.631-.64.732-.872.54-1.248a.756.756 0 0 0-.857-.422c-.126.023-.245.12-.684.553l-.53.526-.54-.539-.539-.538.858-.861c.472-.473.877-.911.9-.973.223-.599-.357-1.188-.95-.966-.151.057-.353.234-1.029.904l-.842.834-.412-.414c-.357-.359-.41-.428-.398-.529.011-.103.21-.257 1.732-1.346C7.851 12.406 8.452 12 8.518 12c.078 0 .506.406 1.974 1.87" fill-rule="evenodd"/></svg>

<svg fill="none" xmlns="http://www.w3.org/2000/svg" viewBox="0 0 24 24"><path d="M19.340 4.277 C 19.274 4.293,19.175 4.329,19.120 4.358 C 19.065 4.386,17.234 6.192,15.052 8.372 L 11.083 12.336 10.311 11.575 C 9.682 10.955,9.491 10.791,9.279 10.687 C 8.819 10.460,8.200 10.454,7.765 10.671 C 7.425 10.841,4.089 13.237,3.886 13.458 C 3.659 13.704,3.529 13.997,3.472 14.389 C 3.432 14.662,3.435 14.747,3.493 14.981 C 3.530 15.131,3.610 15.341,3.670 15.448 C 3.743 15.576,4.646 16.508,6.320 18.183 C 8.711 20.575,8.877 20.733,9.154 20.870 C 9.408 20.996,9.494 21.018,9.798 21.032 C 10.363 21.059,10.762 20.909,11.124 20.532 C 11.394 20.251,13.712 16.984,13.850 16.690 C 14.069 16.223,14.037 15.586,13.772 15.127 C 13.712 15.024,13.326 14.597,12.913 14.178 L 12.163 13.417 16.082 9.498 C 18.238 7.343,20.048 5.514,20.104 5.433 C 20.295 5.159,20.282 4.776,20.072 4.537 C 19.874 4.312,19.601 4.215,19.340 4.277 M10.492 13.870 C 11.522 14.898,12.403 15.791,12.448 15.853 C 12.516 15.947,12.522 15.983,12.485 16.066 C 12.402 16.247,10.071 19.482,9.993 19.524 C 9.951 19.546,9.886 19.555,9.848 19.543 C 9.810 19.531,9.600 19.341,9.381 19.121 L 8.983 18.721 9.450 18.249 C 10.081 17.609,10.182 17.377,9.990 17.001 C 9.818 16.664,9.504 16.509,9.133 16.579 C 9.007 16.602,8.888 16.699,8.449 17.132 L 7.919 17.658 7.379 17.119 L 6.840 16.581 7.698 15.720 C 8.170 15.247,8.575 14.809,8.598 14.747 C 8.821 14.148,8.241 13.559,7.648 13.781 C 7.497 13.838,7.295 14.015,6.619 14.685 L 5.777 15.519 5.365 15.105 C 5.008 14.746,4.955 14.677,4.967 14.576 C 4.978 14.473,5.177 14.319,6.699 13.230 C 7.851 12.406,8.452 12.000,8.518 12.000 C 8.596 12.000,9.024 12.406,10.492 13.870 " stroke="none" fill-rule="evenodd" fill="currentColor"/></svg>
